public/assets/img/user_circle.svg

<svg fill="none" height="24" viewBox="0 0 24 24" width="24" xmlns="http://www.w3.org/2000/svg"><path d="m12.0001 22c-1.5119.0043-3.00478-.3378-4.364-1-.49745-.242-.97407-.5246-1.425-.845l-.137-.1c-1.24018-.9154-2.25413-2.1028-2.964-3.471-.73426-1.4161-1.11509-2.9888-1.11005-4.584 0-5.52285 4.4772-10 10.00005-10 5.5228 0 10 4.47715 10 10 .005 1.5944-.3754 3.1664-1.109 4.582-.7089 1.3674-1.7214 2.5544-2.96 3.47-.4672.342-.9631.6431-1.482.9l-.08.04c-1.3601.6657-2.8547 1.0106-4.369 1.008zm0-5c-1.4985-.0029-2.87234.834-3.557 2.167 2.2414 1.1102 4.8726 1.1102 7.114 0v-.005c-.6855-1.3315-2.0594-2.1666-3.557-2.162zm0-2c2.1661.0028 4.1634 1.1701 5.229 3.056l.015-.013.014-.012-.017.015-.01.008c2.529-2.1849 3.4333-5.7117 2.2676-8.84389-1.1656-3.13223-4.1555-5.20979-7.4976-5.20979-3.34209 0-6.33201 2.07756-7.49765 5.20979-1.16564 3.13219-.26135 6.65899 2.26765 8.84389 1.06626-1.885 3.06336-3.0514 5.229-3.054zm0-1c-2.20914 0-4-1.7909-4-4 0-2.20914 1.79086-4 4-4 2.2091 0 4 1.79086 4 4 0 1.0609-.4214 2.0783-1.1716 2.8284-.7501.7502-1.7675 1.1716-2.8284 1.1716zm0-6c-1.1046 0-2 .89543-2 2 0 1.1046.8954 2 2 2s2-.8954 2-2c0-1.10457-.8954-2-2-2z" fill="#4f4f4f"/></svg>

<svg width="24" height="24" viewBox="0 0 24 24" fill="none" xmlns="http://www.w3.org/2000/svg">
<path d="M12.0001 22C10.4882 22.0043 8.99532 21.6622 7.6361 21C7.13865 20.758 6.66203 20.4754 6.2111 20.155L6.0741 20.055C4.83392 19.1396 3.81997 17.9522 3.1101 16.584C2.37584 15.1679 1.99501 13.5952 2.00005 12C2.00005 6.47715 6.47725 2 12.0001 2C17.5229 2 22.0001 6.47715 22.0001 12C22.0051 13.5944 21.6247 15.1664 20.8911 16.582C20.1822 17.9494 19.1697 19.1364 17.9311 20.052C17.4639 20.394 16.968 20.6951 16.4491 20.952L16.3691 20.992C15.009 21.6577 13.5144 22.0026 12.0001 22ZM12.0001 17C10.5016 16.9971 9.12776 17.834 8.4431 19.167C10.6845 20.2772 13.3157 20.2772 15.5571 19.167V19.162C14.8716 17.8305 13.4977 16.9954 12.0001 17ZM12.0001 15C14.1662 15.0028 16.1635 16.1701 17.2291 18.056L17.2441 18.043L17.2581 18.031L17.2411 18.046L17.2311 18.054C19.7601 15.8691 20.6644 12.3423 19.4987 9.21011C18.3331 6.07788 15.3432 4.00032 12.0011 4.00032C8.65901 4.00032 5.66909 6.07788 4.50345 9.21011C3.33781 12.3423 4.2421 15.8691 6.7711 18.054C7.83736 16.169 9.83446 15.0026 12.0001 15ZM12.0001 14C9.79096 14 8.0001 12.2091 8.0001 10C8.0001 7.79086 9.79096 6 12.0001 6C14.2092 6 16.0001 7.79086 16.0001 10C16.0001 11.0609 15.5787 12.0783 14.8285 12.8284C14.0784 13.5786 13.061 14 12.0001 14ZM12.0001 8C10.8955 8 10.0001 8.89543 10.0001 10C10.0001 11.1046 10.8955 12 12.0001 12C13.1047 12 14.0001 11.1046 14.0001 10C14.0001 8.89543 13.1047 8 12.0001 8Z" fill="#4F4F4F"/>
</svg>
